src/assets/ico-select.svg

<svg height="7" viewBox="0 0 12 7" width="12" xmlns="http://www.w3.org/2000/svg"><path d="m6.05023193 6.71226044-.02253914.02253914-.35355339-.35355339-4.52769279-4.5276928-.35355339-.35355339.70710678-.70710678.35355339.35355339 4.17470589 4.17470589 4.19667852-4.19667855.3535534-.35355339.7071068.70710678-.3535534.35355339-4.52769279 4.5276928-.35355339.35355339z" fill="#3d4246" fill-rule="evenodd"/></svg>

<?xml version="1.0" encoding="UTF-8" standalone="no"?>
<svg width="12px" height="7px" viewBox="0 0 12 7" version="1.1" xmlns="http://www.w3.org/2000/svg" xmlns:xlink="http://www.w3.org/1999/xlink" xmlns:sketch="http://www.bohemiancoding.com/sketch/ns">
    <g id="Page-1" stroke="none" stroke-width="1" fill="none" fill-rule="evenodd" sketch:type="MSPage">
        <path d="M6.05023193,6.71226044 L6.02769279,6.73479958 L5.6741394,6.38124619 L1.14644661,1.85355339 L0.792893219,1.5 L1.5,0.792893219 L1.85355339,1.14644661 L6.02825928,5.3211525 L10.2249378,1.12447395 L10.5784912,0.770920563 L11.285598,1.47802734 L10.9320446,1.83158073 L6.40435181,6.35927353 L6.05079842,6.71282692 L6.05023193,6.71226044 Z" id="Shape" fill="#3d4246" sketch:type="MSShapeGroup"></path>
    </g>
</svg>
